build/img/favicon/favicon.svg

<svg width="152" height="152" viewBox="0 0 152 152" fill="none" xmlns="http://www.w3.org/2000/svg">
<rect width="152" height="152" fill="#81B3D3"/>
<path d="M52.2539 93.356C52.3555 93.4587 52.407 93.5601 52.407 93.6628C52.5099 93.6628 52.6114 93.7129 52.713 93.8156C55.4701 96.8733 58.5861 99.7282 62.0582 102.379C65.5303 104.927 69.5142 106.303 74.0074 106.507C74.1103 106.507 74.2118 106.56 74.3134 106.661H74.7738C74.8754 106.661 74.9783 106.711 75.0799 106.814H76.7645C77.2763 106.711 77.7354 106.61 78.1443 106.507C79.7814 106.201 81.3427 105.577 82.7404 104.673C84.2707 103.755 85.4461 102.633 86.2626 101.308L86.57 100.696L86.8761 100.085C87.0805 99.3713 87.2336 98.709 87.3364 98.0966C87.438 97.4856 87.4895 96.9246 87.4895 96.415C87.4895 93.6628 86.2626 91.3689 83.8129 89.5332C81.5287 87.6335 78.9385 86.1339 76.1524 85.0981C75.1045 84.7121 74.029 84.4057 72.9349 84.1815C71.9744 83.8915 71.0037 83.6363 70.0247 83.4165H69.7187C69.6158 83.3151 69.5142 83.2637 69.4126 83.2637C64.4452 82.0555 59.6921 80.0957 55.3184 77.4525C50.9255 74.7003 47.9138 70.7748 46.2793 65.6773C45.9593 64.6106 45.6527 63.5399 45.3599 62.4655C45.1502 61.3016 44.997 60.1282 44.9008 58.9495C44.8067 58.5997 44.7553 58.2398 44.7478 57.8776V54.2076C44.8493 53.3924 45.0024 52.5773 45.2068 51.7609C45.524 49.6785 46.0368 47.6306 46.7384 45.6441C47.4534 43.6057 48.3729 41.77 49.4955 40.1397C52.7645 34.7354 56.9516 30.8613 62.0582 28.5173C67.2676 26.172 72.6803 25 78.2974 25C79.6258 25 80.9529 25.1014 82.2813 25.3055C83.7158 25.4078 85.1463 25.5607 86.57 25.7638C90.2954 26.3893 93.9421 27.4149 97.4467 28.8228C101.123 30.2503 104.494 31.9319 107.558 33.8689L99.1326 52.6787C96.3829 50.6449 93.4609 48.8543 90.3996 47.3271C87.3365 45.7969 84.0174 45.0331 80.4424 45.0331H79.2155C76.8674 45.3386 74.6722 46.4092 72.6288 48.2436C70.5867 49.9766 69.5657 51.8636 69.5657 53.9021V54.8199C69.6672 55.1254 69.8203 55.4309 70.0247 55.7377C70.2292 56.4515 70.5867 57.1138 71.0972 57.7262C71.6078 58.3372 72.1697 58.8982 72.7818 59.4078C73.9058 60.3256 75.5389 61.1921 77.6853 62.0072C79.8289 62.721 82.0768 63.4347 84.4263 64.1484C86.3655 64.658 88.2546 65.1677 90.0936 65.6773C91.9325 66.0855 93.4641 66.4937 94.6896 66.9019C100.408 68.9404 104.698 72.355 107.558 77.147C110.417 81.8362 111.898 86.8323 112 92.1326V92.8977C112 93.5101 111.95 94.1224 111.847 94.7334V96.415C111.235 101.717 109.499 106.763 106.639 111.555C103.882 116.347 100.154 120.017 95.4561 122.566C93.7124 123.384 91.9217 124.099 90.0936 124.706C88.2678 125.213 86.4291 125.672 84.5793 126.083C83.0623 126.387 81.527 126.591 79.9833 126.694C78.5107 126.894 77.0264 126.996 75.5403 127H73.8543C67.7267 126.797 61.702 125.471 55.7775 123.023C49.8543 120.475 44.5947 117.111 40 112.931L52.2539 93.356Z" fill="white"/>
</svg>

<svg width="152" height="152" fill="none" xmlns="http://www.w3.org/2000/svg"><path fill="#81B3D3" d="M0 0h152v152H0z"/><path d="M52.254 93.356c.102.103.153.204.153.307.103 0 .204.05.306.153 2.757 3.057 5.873 5.912 9.345 8.563 3.472 2.548 7.456 3.924 11.95 4.128.102 0 .204.053.305.154h.46c.102 0 .205.05.307.153h1.684c.512-.103.971-.204 1.38-.307a12.793 12.793 0 004.596-1.834c1.53-.918 2.706-2.04 3.523-3.365l.307-.612.306-.611c.204-.714.358-1.376.46-1.988.102-.611.154-1.172.154-1.682 0-2.752-1.227-5.046-3.677-6.882a26.328 26.328 0 00-7.66-4.435 22.204 22.204 0 00-3.218-.916c-.96-.29-1.931-.546-2.91-.766h-.306c-.103-.1-.205-.152-.306-.152a50.178 50.178 0 01-14.095-5.811c-4.392-2.753-7.404-6.678-9.039-11.776a131.61 131.61 0 01-.92-3.212 36.637 36.637 0 01-.458-3.516 4.483 4.483 0 01-.153-1.071v-3.67c.101-.816.254-1.63.459-2.447.317-2.083.83-4.13 1.531-6.117.715-2.038 1.635-3.874 2.758-5.504 3.268-5.405 7.456-9.279 12.562-11.623C67.268 26.172 72.68 25 78.298 25c1.328 0 2.655.101 3.983.305 1.435.103 2.865.256 4.289.459a52.496 52.496 0 0110.877 3.059c3.676 1.427 7.047 3.109 10.111 5.046l-8.425 18.81a58.906 58.906 0 00-8.733-5.352c-3.064-1.53-6.383-2.294-9.958-2.294h-1.226c-2.349.306-4.544 1.376-6.587 3.21-2.042 1.734-3.063 3.62-3.063 5.66v.917c.101.305.254.61.459.918a5.417 5.417 0 001.072 1.988 13.19 13.19 0 001.685 1.682c1.124.918 2.757 1.784 4.903 2.6a268.7 268.7 0 006.741 2.14c1.94.51 3.829 1.02 5.668 1.53 1.839.407 3.37.816 4.596 1.224 5.718 2.038 10.008 5.453 12.868 10.245 2.859 4.69 4.34 9.685 4.442 14.986v.765c0 .612-.05 1.224-.153 1.835v1.682c-.612 5.302-2.348 10.348-5.208 15.14-2.757 4.792-6.485 8.462-11.183 11.011a48.94 48.94 0 01-5.362 2.14c-1.826.507-3.665.966-5.515 1.377a35.377 35.377 0 01-4.596.611c-1.472.2-2.957.302-4.443.306h-1.686c-6.127-.203-12.152-1.529-18.076-3.977-5.924-2.548-11.183-5.912-15.778-10.092l12.254-19.575z" fill="#fff"/></svg>
